X: 34
T: J'ay mains de biens
N: Derived from Bus3027-Jay_mains_de_biens.krn
C: Antoine Busnoys
%%abc-version 2.0
%%abcx-abcm2ps-target-version 5.9.1 (29 Sep 2008)
%%abc-creator hum2abc beta
%%abcx-conversion-date 2019/02/16 20:26:07
%%abc-edited-by Jesse Rodin
%%abc-edited-by Chris Gage 04-20-2015
%%abcx-initial-encoding-date 2015/05/05/
%%humdrum-veritas 2985091535
%%humdrum-veritas-data 1002755235
%%linebreak <none>
%%barnumbers 0
L: 1/4
M: 2/1
Q: 1/2=120
V: 1 clef=treble
V: 2 clef=treble-8
V: 3 clef=bass
K: F
[V:1] G6FE | 
[V:2] G8 | 
[V:3] G,8 | 
[V:1] D4E4 | 
[V:2] B4c4 | 
[V:3] G,6F,E, | 
[V:1] F8 | 
[V:2] d8 | 
[V:3] D,8 | 
[V:1] B4A4- | 
[V:2] d6c2 | 
[V:3] D,4F,4 | 
[V:1] A2G2G4- | 
[V:2] B4G4 | 
[V:3] G,4E,4 | 
[V:1] G4F4 | 
[V:2] A8 | 
[V:3] D,8 | 
[V:1] B6AG | 
[V:2] G8 | 
[V:3] G,,2G,4F,E, | 
[V:1] F4G2F2 | 
[V:2] d4e4 | 
[V:3] D,4z4 | 
[V:1] D8 | 
[V:2] f8 | 
[V:3] B,,8 | 
[V:1] F6D2 | 
[V:2] d8 | 
[V:3] B,8 | 
[V:1] E2F2G4- | 
[V:2] c4B4 | 
[V:3] A,4G,4 | 
[V:1] G2^F2F2E2 | 
[V:2] A8 | 
[V:3] D,8 | 
[V:1] G8 | 
[V:2] G8- | 
[V:3] G,,4G,4- | 
[V:1] z4D4 | 
[V:2] G8 | 
[V:3] G,2A,2B,3A, | 
[V:1] E4F4 | 
[V:2] z4d4 | 
[V:3] G,2F,E,D,4 | 
[V:1] G2F2D4 | 
[V:2] e4f4 | 
[V:3] C,4B,,4 | 
[V:1] B,4F4- | 
[V:2] g2f2d4- | 
[V:3] z4B,,4 | 
[V:1] F2E2D4- | 
[V:2] d2c2B2f2- | 
[V:3] F,,2G,,A,,B,,4 | 
[V:1] D2C2B,4 | 
[V:2] f2e2d4 | 
[V:3] z4B,,4 | 
[V:1] A,4B,4- | 
[V:2] c4B4 | 
[V:3] F,,4G,,4 | 
[V:1] B,4A,4 | 
[V:2] c8 | 
[V:3] F,,2F,4z2 | 
[V:1] B,2D2E2F2- | 
[V:2] B3AG2F2 | 
[V:3] B,,4C,2F,,2 | 
[V:1] FED2C2D2- | 
[V:2] D4E2F2 | 
[V:3] B,,4A,,2D,2 | 
[V:1] DCB,2A,4 | 
[V:2] D2G4^F2 | 
[V:3] B,,A,,G,,2D,4 | 
[V:1] G,8 | 
[V:2] G8- | 
[V:3] G,,4z4 | 
[V:1] z4B,4 | 
[V:2] G8 | 
[V:3] C,4B,,4 | 
[V:1] B,4B,4 | 
[V:2] z4G4 | 
[V:3] G,,8 | 
[V:1] A,4G,2D2- | 
[V:2] F4G2D2 | 
[V:3] D,4G,,2B,,2 | 
[V:1] D2C2D3E | 
[V:2] E4D4 | 
[V:3] A,,4A,4 | 
[V:1] F6ED | 
[V:2] A6A2 | 
[V:3] D,6C,B,, | 
[V:1] C3B,D4- | 
[V:2] A4B4- | 
[V:3] A,,4G,,4- | 
[V:1] D2C2F3E | 
[V:2] B4A4 | 
[V:3] G,,4D,2F,2 | 
[V:1] E3DD4- | 
[V:2] G4F4 | 
[V:3] C,2G,,2D,4 | 
[V:1] D4^C4 | 
[V:2] E8 | 
[V:3] A,,8 | 
[V:1] D8 | 
[V:2] D8- | 
[V:3] z4A,4 | 
[V:1] z4F4 | 
[V:2] D8 | 
[V:3] D,4B,,4 | 
[V:1] F6D2 | 
[V:2] z4B4 | 
[V:3] D,6C,B,, | 
[V:1] E4F4 | 
[V:2] c3BA4 | 
[V:3] A,,4D,4 | 
[V:1] G6FE | 
[V:2] G8 | 
[V:3] G,,8 | 
[V:1] D4E4 | 
[V:2] B4c4 | 
[V:3] G,4C,4 | 
[V:1] F4G2B2- | 
[V:2] A4G4 | 
[V:3] D,4G,,4 | 
[V:1] B2A2A4- | 
[V:2] d4c4 | 
[V:3] z4F,4 | 
[V:1] A2G2G2F2 | 
[V:2] B8 | 
[V:3] G,6E,2 | 
[V:1] A4F2E2 | 
[V:2] A8 | 
[V:3] F,2D,4C,2 | 
[V:1] D4G4- | 
[V:2] B8 | 
[V:3] B,,2A,,2G,,4 | 
[V:1] G4F4 | 
[V:2] A8 | 
[V:3] D,4z2D,2 | 
[V:1] B4A4 | 
[V:2] G4F4 | 
[V:3] G,,4D,4 | 
[V:1] G2G4^F2 | 
[V:2] G2B2A4 | 
[V:3] B,,2G,,2D,4 | 
[V:1] G8 ]|:  
[V:2] G8 ]|:  
[V:3] G,,8 ]|:  
[V:1]  [K:F] [K:clef=treble][M:2/1]G8 | 
[V:2]  [K:F] [K:clef=treble-8][M:2/1]g8 | 
[V:3]  [K:F] [K:clef=bass][M:2/1]G,8- | 
[V:1] B4A4- | 
[V:2] g4f4 | 
[V:3] G,4D,4 | 
[V:1] A4B4 | 
[V:2] d8 | 
[V:3] D,4G,4 | 
[V:1] c6BA | 
[V:2] c4_e4- | 
[V:3] C,8 | 
[V:1] G2F2B4- | 
[V:2] e4d4 | 
[V:3] _E,2D,C,B,,4 | 
[V:1] B4A4 | 
[V:2] c8 | 
[V:3] F,8 | 
[V:1] B6A2 | 
[V:2] B8 | 
[V:3] B,,8 | 
[V:1] G4G4 | 
[V:2] z4_e4 | 
[V:3] C,4C,4 | 
[V:1] F4B2A2- | 
[V:2] d4B2c2- | 
[V:3] D,4G,2F,2 | 
[V:1] AGG4^F2 | 
[V:2] cBG2A4 | 
[V:3] F,G,E,2D,4 | 
[V:1] G8 | 
[V:2] G8- | 
[V:3] G,,2C,4B,,A,, | 
[V:1] z4G4 | 
[V:2] G8 | 
[V:3] G,,4G,2B,2- | 
[V:1] G4A4 | 
[V:2] z8 | 
[V:3] B,A,G,2F,4 | 
[V:1] B6AG | 
[V:2] g6f_e | 
[V:3] _E,8 | 
[V:1] F2G2F2B2- | 
[V:2] d2_e2d2B2 | 
[V:3] B,2_E,2B,2G,2 | 
[V:1] B2A2B4 | 
[V:2] c4B4 | 
[V:3] F,4B,A,G,2 | 
[V:1] A2F2G2F2- | 
[V:2] c2d2e2d2- | 
[V:3] F,E,D,2C,2D,2 | 
[V:1] FED2C4 | 
[V:2] dcB2z2A2 | 
[V:3] B,,4F,,4 | 
[V:1] B,8 | 
[V:2] B3AG2FE | 
[V:3] B,,4B,,2B,,2- | 
[V:1] B,4A,4 | 
[V:2] D2G4F2 | 
[V:3] B,,2G,,2D,4 | 
[V:1] G,2B,3CD2- | 
[V:2] B3GA2B2- | 
[V:3] G,,2G,2F,2D,2 | 
[V:1] DCB,2A,4 | 
[V:2] BGG3^F^FE | 
[V:3] G,4D,4 | 
[V:1] G,8 :|]  
[V:2] G8 :|]  
[V:3] G,,8 :|]  



